assets/images/success.svg

<svg height="80" viewBox="0 0 80 80" width="80" xmlns="http://www.w3.org/2000/svg" xmlns:xlink="http://www.w3.org/1999/xlink"><linearGradient id="a" x1="92.85473%" x2="-13.765448%" y1="76.652238%" y2="27.566747%"><stop offset="0" stop-color="#1764ff"/><stop offset="1" stop-color="#4093ed"/></linearGradient><g fill="none" fill-rule="evenodd"><path d="m-450-451h1507v1024h-1507z" fill="#fff"/><g><circle cx="40" cy="40" fill="url(#a)" r="40"/><path d="m57.9642857 26.2857143 21.3027284 21.3759189c-2.4749769 12.7589692-11.0139346 23.3535752-22.4967429 28.6636878l-22.1696275-22.1710394z" fill="#000" opacity=".2"/><path d="m34.0020037 53.3235671-11.1453167-15.4660161c-.1614447-.2240318-.1107078-.5365222.113324-.6979668.0851264-.0613448.1873944-.0943546.2923214-.0943546h4.9913138c.6461066 0 1.2524139.3121277 1.6278035.8379949l6.0258439 8.441348c.1604394.2247528.4726994.276889.6974522.1164496.0442428-.0315827.0830394-.0701687.1148624-.1142389l14.3363581-19.8537809c.0939995-.1301757.2447971-.207288.4053637-.207288h5.461491c.2761424 0 .5.2238576.5.5 0 .1024357-.0314625.2023998-.0901316.2863702l-18.3249675 26.2276779c-.3741428.5354932-.9862235.8545192-1.6394737.8545192h-1.7436628c-.6429456 0-1.2466882-.3090986-1.6225817-.8307145z" fill="#fff"/></g></g></svg>

<?xml version="1.0" encoding="UTF-8"?>
<svg width="80px" height="80px" viewBox="0 0 80 80" version="1.1" xmlns="http://www.w3.org/2000/svg" xmlns:xlink="http://www.w3.org/1999/xlink">
    <title>编组 4</title>
    <defs>
        <linearGradient x1="92.8547295%" y1="76.6522377%" x2="-13.7654477%" y2="27.5667474%" id="linearGradient-1">
            <stop stop-color="#1764FF" offset="0%"></stop>
            <stop stop-color="#4093ED" offset="100%"></stop>
        </linearGradient>
    </defs>
    <g id="页面-1" stroke="none" stroke-width="1" fill="none" fill-rule="evenodd">
        <g id="切图" transform="translate(-450.000000, -451.000000)">
            <rect id="矩形" fill="#FFFFFF" x="0" y="0" width="1507" height="1024"></rect>
            <g id="编组-4" transform="translate(450.000000, 451.000000)">
                <circle id="椭圆形" fill="url(#linearGradient-1)" cx="40" cy="40" r="40"></circle>
                <path d="M57.9642857,26.2857143 L79.2670141,47.6616332 C76.7920372,60.4206024 68.2530795,71.0152084 56.7702712,76.325321 L34.6006437,54.1542816 L57.9642857,26.2857143 Z" id="形状结合" fill="#000000" opacity="0.2"></path>
                <path d="M34.0020037,53.3235671 L22.856687,37.857551 C22.6952423,37.6335192 22.7459792,37.3210288 22.970011,37.1595842 C23.0551374,37.0982394 23.1574054,37.0652296 23.2623324,37.0652296 L28.2536462,37.0652296 C28.8997528,37.0652296 29.5060601,37.3773573 29.8814497,37.9032245 L35.9072936,46.3445725 C36.067733,46.5693253 36.379993,46.6214615 36.6047458,46.4610221 C36.6489886,46.4294394 36.6877852,46.3908534 36.7196082,46.3467832 L51.0559663,26.4930023 C51.1499658,26.3628266 51.3007634,26.2857143 51.46133,26.2857143 L56.922821,26.2857143 C57.1989634,26.2857143 57.422821,26.5095719 57.422821,26.7857143 C57.422821,26.88815 57.3913585,26.9881141 57.3326894,27.0720845 L39.0077219,53.2997624 C38.6335791,53.8352556 38.0214984,54.1542816 37.3682482,54.1542816 L35.6245854,54.1542816 C34.9816398,54.1542816 34.3778972,53.845183 34.0020037,53.3235671 Z" id="路径" fill="#FFFFFF"></path>
            </g>
        </g>
    </g>
</svg>
